!!!COM: Victor Masse/
!!!CNT: Francais
!!!TXO: Francais
!!!OTL: La Chanson du Printemps
!!!LYR: (Poesie populaire)
!!!OPR: Chants Bretons
!!!ENC: Jacob Pegg
!!!YOR: Romantic French Song 1830-1870 -David Tunley, ed.,
!!!YOR: New York: Garland Publishing, Inc., 1995, Vol. 4
!!!ODT: 1853/
!!NB: Vocal melody and text only encoded.
!!NB: First instance of melodic material only encoded.
**kern	**silbe
*clef G2	*
*k[f#c#g#]	*
*M6/8	*
=6	=6
4r	.
8r	.
{8cc#	{Voi-
8a	-ci
8b	le
=7	=7
4.cc#	mai
4ee	de
8ee	nou-
=8	=8
[2.b	-veau,
=9	=9
4b]}	|}
8r	.
{8b	{Que
8dd	chan-
8cc#	-te
=10	=10
4.b	t'on
4cc#	pas-
8cc#	-se-
=11	=11
[4.f#	-reau,
8f#]}	|}
{8g#	{Sur
8a	la
=12	=12
[4.b	lan-
8b]	|
8cc#	|
(eeq	|
8dd)	|
=13	=13
[4.cc#	-de?
8cc#]}	|}
8r	.
{8a	{Que
=14	=14
8dd	chan-
8ee	-te
8dd	l'oi-
(8dd	-seau
8cc#)	|
8b	pe-
=15	=15
[4.cc#	-tit
8cc#]}	|}
8r	.
{8a	{Tout
=16	=16
8dd	en
8ee	ba^-
8dd	-tis-
(8dd	-sant
8cc#)	|
8b	son
=17	=17
[4.cc#	nid,
8cc#]}	|}
8r	.
{8a	{Sur
=18	=18
8a	les
8ff#	touf-
8ee	-fes
(8dd	de
8f#)	|
8dd	la-
=19	=19
4.cc#	-van-
(8b	|
16cc#q	|
16bq	|
8e	|
8b;)	|
=20	=20
[4.a	-de?
8a]}	|}
8r	.
8r	.
*-	*-
